icons/llin.svg

<svg width="48" height="48" viewBox="0 0 48 48" fill="none" xmlns="http://www.w3.org/2000/svg">
<path fill-rule="evenodd" clip-rule="evenodd" d="M19 12C19 10.5486 20.7177 9.33797 23 9.06001V6H25V9.06001C27.2822 9.33797 29 10.5486 29 12C29 12.3052 28.924 12.5998 28.7828 12.8773C28.8537 12.9665 28.9105 13.0694 28.9487 13.1838L29.9487 16.1838C30.1233 16.7077 29.8401 17.274 29.3162 17.4487C28.7923 17.6233 28.2259 17.3402 28.0513 16.8162L27.2122 14.2991C26.3434 14.7365 25.223 15 24 15C22.777 15 21.6565 14.7365 20.7877 14.2991L19.9487 16.8162C19.774 17.3402 19.2077 17.6233 18.6837 17.4487C18.1598 17.274 17.8766 16.7077 18.0513 16.1838L19.0513 13.1838C19.0894 13.0694 19.1462 12.9665 19.2172 12.8773C19.0759 12.5998 19 12.3052 19 12ZM21.4934 11.5937C22.038 11.2669 22.9194 11 24 11C25.0805 11 25.9619 11.2669 26.5065 11.5937C26.8195 11.7815 26.9388 11.9277 26.9821 12C26.9388 12.0723 26.8195 12.2185 26.5065 12.4063C25.9619 12.7331 25.0805 13 24 13C22.9194 13 22.038 12.7331 21.4934 12.4063C21.1804 12.2185 21.0611 12.0723 21.0179 12C21.0611 11.9277 21.1804 11.7815 21.4934 11.5937Z" fill="black"/>
<path d="M17.2227 18.578C17.634 18.9466 17.6686 19.5788 17.3 19.9901L15.1893 22.3449C14.8207 22.7562 14.1885 22.7907 13.7772 22.4221C13.3659 22.0535 13.3314 21.4213 13.7 21.01L15.8106 18.6552C16.1793 18.2439 16.8115 18.2094 17.2227 18.578Z" fill="black"/>
<path d="M11.4472 24.3944C11.9412 24.1474 12.1414 23.5468 11.8944 23.0528C11.6474 22.5588 11.0467 22.3586 10.5528 22.6056L7.99997 23.882V27.5C7.99997 28.0523 8.44769 28.5 8.99997 28.5C9.55226 28.5 9.99997 28.0523 9.99997 27.5V25.118L11.4472 24.3944Z" fill="black"/>
<path d="M6.10555 41.9472C5.85856 41.4532 6.05878 40.8526 6.55276 40.6056L7.99998 39.882L7.99998 37.5C7.99998 36.9477 8.44769 36.5 8.99998 36.5C9.55226 36.5 9.99998 36.9477 9.99998 37.5V41.118L7.44719 42.3944C6.95321 42.6414 6.35254 42.4412 6.10555 41.9472Z" fill="black"/>
<path d="M9.99997 31C9.99997 30.4477 9.55226 30 8.99997 30C8.44769 30 7.99997 30.4477 7.99997 31V34C7.99997 34.5523 8.44769 35 8.99997 35C9.55226 35 9.99997 34.5523 9.99997 34V31Z" fill="black"/>
<path d="M30.7 19.9901C30.3314 19.5788 30.3659 18.9466 30.7772 18.578C31.1885 18.2094 31.8207 18.2439 32.1893 18.6552L34.3 21.01C34.6686 21.4213 34.634 22.0535 34.2228 22.4221C33.8115 22.7907 33.1793 22.7562 32.8106 22.3449L30.7 19.9901Z" fill="black"/>
<path d="M36.1056 23.0528C35.8586 23.5468 36.0588 24.1474 36.5528 24.3944L38 25.118V27.5C38 28.0523 38.4477 28.5 39 28.5C39.5523 28.5 40 28.0523 40 27.5V23.882L37.4472 22.6056C36.9532 22.3586 36.3525 22.5588 36.1056 23.0528Z" fill="black"/>
<path d="M41.4472 40.6056C41.9412 40.8526 42.1414 41.4532 41.8944 41.9472C41.6474 42.4412 41.0467 42.6414 40.5528 42.3944L38 41.118V37.5C38 36.9477 38.4477 36.5 39 36.5C39.5523 36.5 40 36.9477 40 37.5V39.882L41.4472 40.6056Z" fill="black"/>
<path d="M39 30C38.4477 30 38 30.4477 38 31V34C38 34.5523 38.4477 35 39 35C39.5523 35 40 34.5523 40 34V31C40 30.4477 39.5523 30 39 30Z" fill="black"/>
<path d="M16 27L16 42H18V38H31V42H33V36H18L18 27H16Z" fill="black"/>
<path d="M20 32C19.1715 32 18.5 32.6716 18.5 33.5C18.5 34.3284 19.1715 35 20 35H32C32.8284 35 33.5 34.3284 33.5 33.5C33.5 32.6716 32.8284 32 32 32H20Z" fill="black"/>
</svg>

<svg
  xmlns="http://www.w3.org/2000/svg"
  width="24"
  height="24"
  viewBox="0 0 24 24"
  fill="none"
  stroke="currentColor"
  stroke-width="2"
  stroke-linecap="round"
  stroke-linejoin="round"
>
  <path
    fill-rule="evenodd"
    d="M19 12c0-1.451 1.718-2.662 4-2.94V6h2v3.06c2.282.278 4 1.489 4 2.94 0 .305-.076.6-.217.877a1 1 0 0 1 .166.307l1 3a1 1 0 0 1-1.898.632l-.839-2.517c-.869.438-1.989.701-3.212.701s-2.343-.264-3.212-.7l-.84 2.516a1 1 0 0 1-1.897-.632l1-3a1 1 0 0 1 .166-.307A1.9 1.9 0 0 1 19 12m2.493-.406C22.038 11.267 22.92 11 24 11c1.08 0 1.962.267 2.506.594.314.188.433.334.476.406-.043.072-.162.219-.476.406-.544.327-1.425.594-2.506.594s-1.962-.267-2.507-.594c-.313-.187-.432-.334-.475-.406.043-.072.162-.219.475-.406"
    clip-rule="evenodd"
  />
  <path d="M17.223 18.578a1 1 0 0 1 .077 1.412l-2.11 2.355a1 1 0 1 1-1.49-1.335l2.11-2.355a1 1 0 0 1 1.413-.077" />
  <path d="M11.447 24.394a1 1 0 1 0-.894-1.788L8 23.882V27.5a1 1 0 1 0 2 0v-2.382z" />
  <path d="M6.106 41.947a1 1 0 0 1 .447-1.341L8 39.882V37.5a1 1 0 1 1 2 0v3.618l-2.553 1.276a1 1 0 0 1-1.341-.447" />
  <path d="M10 31a1 1 0 1 0-2 0v3a1 1 0 1 0 2 0z" />
  <path d="M30.7 19.99a1 1 0 1 1 1.49-1.335l2.11 2.355a1 1 0 0 1-1.49 1.335z" />
  <path d="M36.106 23.053a1 1 0 0 0 .447 1.341l1.447.724V27.5a1 1 0 1 0 2 0v-3.618l-2.553-1.276a1 1 0 0 0-1.341.447" />
  <path d="M41.447 40.606a1 1 0 1 1-.894 1.788L38 41.118V37.5a1 1 0 1 1 2 0v2.382z" />
  <path d="M39 30a1 1 0 0 0-1 1v3a1 1 0 1 0 2 0v-3a1 1 0 0 0-1-1" />
  <path d="M16 27v15h2v-4h13v4h2v-6H18v-9z" />
  <path d="M20 32a1.5 1.5 0 1 0 0 3h12a1.5 1.5 0 0 0 0-3z" />
</svg>
